storage/app/icons/phosphoricons/light/app-window-light.svg

<svg xmlns="http://www.w3.org/2000/svg" fill="currentColor" viewBox="0 0 256 256"><path d="M216 42H40a14 14 0 0 0-14 14v144a14 14 0 0 0 14 14h176a14 14 0 0 0 14-14V56a14 14 0 0 0-14-14m2 158a2 2 0 0 1-2 2H40a2 2 0 0 1-2-2V56a2 2 0 0 1 2-2h176a2 2 0 0 1 2 2ZM78 84a10 10 0 1 1-10-10 10 10 0 0 1 10 10m40 0a10 10 0 1 1-10-10 10 10 0 0 1 10 10"/></svg>

<svg xmlns="http://www.w3.org/2000/svg" viewBox="0 0 256 256" fill="currentColor"><path d="M216,42H40A14,14,0,0,0,26,56V200a14,14,0,0,0,14,14H216a14,14,0,0,0,14-14V56A14,14,0,0,0,216,42Zm2,158a2,2,0,0,1-2,2H40a2,2,0,0,1-2-2V56a2,2,0,0,1,2-2H216a2,2,0,0,1,2,2ZM78,84A10,10,0,1,1,68,74,10,10,0,0,1,78,84Zm40,0a10,10,0,1,1-10-10A10,10,0,0,1,118,84Z"/></svg>
